X: 28155
T: Mrs Lawrie's
R: reel
M: 4/4
K: Gdorian
d2cd BG3|GDB,D G^FGA|BG3 AGAc|dggf g2ag|
fddf gfdc|BB2B A2Bc|dBcA B2Ac|B3A GABc:|
d2cA BDAc|B3A GBAG|F3G FC3|FGAc d2cA|
GABc dc3|dcBA BGGF|DFFE FGAc|dgfa g2Bc:|
dggf dggf|dggf d2cB|cf3 cfcf|gfcA FABc|
d3B c3A|B3G AGFG|G,A,B,C DGFG|AdcA GABc:|

